X:1
T:Title
%%score { 1 | 2 }
L:1/8
M:4/4
K:G
V:1 treble nm="Grand Piano"
V:2 bass 
V:1
 z4 z2[Q:1/4=84] DD | G>G GG B2 AG | [FA]>[FA] [FA][GB] [Ac]2 [GB][FA] | Bddd edB[B,DG] | %4
 [A,DF][DA][^CG][CE] D2 DD | G>G GG BBAG | [FA]>[FA] [FA][GB] [Ac]2 [GB][FA] | Bded B[DG]EG | %8
[M:3/4] DG B>A [B,G]2 |[M:1/4] Bc |[M:4/4] d>d GA B2 [Ac][GB] | %11
 [GB]<[FA] [FA][=F^G] [^FA]2 [FA][GB] | [Ac]>[Ac] [FA][GB] [Ac]2 [Bd][Ac] | [Ac]<B B_B =B2 Bc | %14
 d>d dd edB[^DFA] | [EG]>[EA] [EG][CE] [B,D]2 [B,D][B,D] | [DG][DG]AB [Ed][Ec][EB][EA] | %17
[M:3/4] G<B B>A [B,DG]2 |] %18
V:2
 z4 z2 [G,B,][G,B,] | [G,B,D]>[G,B,D] [G,B,D][K:treble][G,B,D] [G,DG]2[K:bass] [G,CD][G,B,D] | %2
 [D,D]>[D,D] [D,D][D,D] [D,D]2 [D,D][D,D] | %3
 [G,DG][G,B,G][G,B,G][G,B,G] [G,CG][G,B,G][G,DG][K:bass]G,, | %4
 A,,[A,,F,][A,,E,][A,,G,] [D,F,]2 [F,A,][F,C] | %5
 [G,B,D]>[G,B,D] [G,B,D][G,B,D] [G,D][G,D][G,CD][G,B,D] | %6
 [D,D]>[D,D] [D,D][D,D] [D,D]2 [D,D][D,D] | %7
 [G,DG][G,B,G][G,CG][G,B,G] [G,DG][K:bass][B,,G,][C,G,C][E,G,C] | %8
[M:3/4] [D,G,B,][D,B,D] [D,G,D]>[D,F,C] [G,,G,]2 |[M:1/4][K:treble] [G,D][G,A,D] | %10
[M:4/4] [G,B,D]>[G,B,D] [G,B,D][G,CD] [G,DG]2[K:bass] [G,D][G,D] | %11
 [D,D]<[D,D] [D,D][D,D] [D,D]2 [D,D][D,D] | [D,D]>[D,D] [D,D][D,D] [D,D]2 [D,D][D,D] | %13
 [G,D]<[G,DG] [G,DG][G,^CG] [G,DG]2 [G,DG][G,DA] | %14
 [G,B,G]>[G,B,G] [G,B,G][G,B,G] [G,CG][G,B,G][G,DG][K:bass]B,, | %15
 C,>[C,C] [C,C][C,G,] [G,,G,]2 [G,,G,][G,,G,] | %16
 [B,,G,][B,,G,][D,F,D][G,=F] [C,G,][C,G,][C,C][C,C] | %17
[M:3/4] [D,B,D]<[D,G,D] [D,D]>[D,CD] [G,,G,]2 |] %18

